img/furgony.svg

<svg width="115" height="115" viewBox="0 0 115 115" fill="none" xmlns="http://www.w3.org/2000/svg">
<g filter="url(#filter0_i_1874_14722)">
<rect width="115" height="115" rx="15" fill="#F8F4F4"/>
</g>
<g filter="url(#filter1_d_1874_14722)">
<path d="M15.316 28.5H67.684C70.0661 28.5 72 30.4482 72 32.8479V82.5H11V32.8479C11 30.4482 12.9339 28.5 15.316 28.5Z" fill="#C1141E"/>
</g>
<g filter="url(#filter2_d_1874_14722)">
<path d="M78 87.5861C78.0116 82.9866 81.7629 79.2424 86.1002 78.5992C91.0765 77.861 95.958 81.3289 96.8194 86.0765C96.9074 86.5627 96.6966 87.0822 97 87.5419C96.787 89.0802 96.5322 90.5986 95.65 91.9624C93.7627 94.8843 91.0626 96.5044 87.4548 96.5C83.847 96.4934 81.14 94.8755 79.2806 91.9358C78.433 90.5942 78.0926 89.1266 78 87.5861ZM87.4896 83.9502C85.4101 83.9502 83.7382 85.5394 83.7382 87.5176C83.7382 89.4803 85.4518 91.1136 87.4988 91.1026C89.4764 91.0915 91.2039 89.4471 91.2294 87.5507C91.2548 85.6035 89.5366 83.948 87.4896 83.9502Z" fill="white"/>
</g>
<g filter="url(#filter3_d_1874_14722)">
<path d="M23 87.5747C23.2223 85.8897 23.4747 84.2312 24.5166 82.7648C26.1072 80.5211 28.2258 79.1166 31.0506 78.6418C34.1462 78.1206 36.7881 79.0636 38.9807 81.0158C40.6849 82.533 41.8148 84.4609 41.8379 86.8084C41.8402 87.0756 41.8379 87.3384 42 87.5703C41.8287 89.8228 41.053 91.8214 39.4786 93.5572C35.3989 98.0512 27.4224 97.2716 24.373 92.082C23.5395 90.6642 23.1436 89.1669 23 87.5769V87.5747ZM32.5556 83.9618C30.4717 83.9397 28.7699 85.5121 28.7491 87.4819C28.7282 89.4408 30.4185 91.0882 32.4745 91.1147C34.4912 91.1412 36.2393 89.4761 36.2509 87.5173C36.2625 85.6159 34.5676 83.9839 32.5556 83.9618Z" fill="white"/>
</g>
<g filter="url(#filter4_d_1874_14722)">
<path d="M72.0212 82.366C72.0145 74.9051 72.0055 67.4465 72.001 59.9856C71.9988 55.8313 72.001 51.677 72.001 47.5226C78.3549 47.5181 84.711 47.4701 91.0649 47.5295C95.0582 47.566 98.2116 50.1002 99.4087 54.138C100.604 58.1689 101.718 62.225 102.861 66.2719C102.935 66.5302 103 66.8044 103 67.0694C103 72.1698 102.993 77.2679 102.989 82.3682C102.751 82.3797 102.51 82.3774 102.277 82.4071C100.19 82.6813 98.3216 82.4619 97.3536 80.1791C91.5837 73.4723 81.1691 74.2447 76.466 81.7467C76.1493 82.2517 75.8169 82.4436 75.2419 82.4139C74.1706 82.3591 73.097 82.3774 72.0235 82.3637L72.0212 82.366ZM98.3621 66.3039C97.2862 62.5061 96.2823 58.6854 95.1099 54.9195C94.5057 52.9795 93.0189 51.9169 90.9818 51.9055C86.1552 51.8758 81.3263 51.9032 76.4974 51.9055C76.0078 51.9512 76.1718 52.3442 76.1718 52.6047C76.1605 57.0081 76.174 61.4092 76.1538 65.8126C76.1516 66.4593 76.3762 66.6421 76.9893 66.6421C83.8845 66.6261 90.7774 66.633 97.6725 66.6238C97.9196 66.6238 98.3126 66.8089 98.3621 66.3062V66.3039Z" fill="white"/>
</g>
<mask id="mask0_1874_14722" style="mask-type:alpha" maskUnits="userSpaceOnUse" x="10" y="28" width="62" height="55">
<path d="M15.3101 28.5074L67.6835 28.5019C70.0659 28.5017 71.9998 30.4499 71.9995 32.8498L71.9944 82.5071L10.988 82.5134L10.9932 32.8562C10.9934 30.4562 12.9278 28.5076 15.3101 28.5074Z" fill="#C1141E"/>
</mask>
<g mask="url(#mask0_1874_14722)">
<path fill-rule="evenodd" clip-rule="evenodd" d="M66.7838 25.5572L64.9564 23.7298L7.72638 80.9598L9.55382 82.7872L66.7838 25.5572ZM53.9702 25.5789L55.7976 27.4063L9.98982 73.2141L8.16238 71.3867L53.9702 25.5789ZM46.3513 27.7162L44.5239 25.8887L7.37847 63.0341L9.2059 64.8616L46.3513 27.7162ZM35.077 26.1984L36.9045 28.0258L9.41705 55.5132L7.58962 53.6858L35.077 26.1984ZM29.0487 26.7424L27.2213 24.9149L5.40922 46.727L7.23665 48.5544L29.0487 26.7424ZM21.0959 25.559L19.2684 23.7316L4.83266 38.1673L6.66009 39.9948L21.0959 25.559ZM69.5251 28.2985L71.3525 30.126L14.1226 87.356L12.2951 85.5285L69.5251 28.2985ZM75.9208 34.6945L74.0933 32.867L31.5364 75.424L33.3638 77.2514L75.9208 34.6945ZM79.1017 37.8756L80.9511 39.725L41.0135 79.6627L39.1641 77.8132L79.1017 37.8756ZM76.3502 52.5388L74.5227 50.7114L42.4653 82.7688L44.2927 84.5963L76.3502 52.5388ZM73.0181 61.3535L74.8456 63.1809L53.7396 84.2868L51.9122 82.4594L73.0181 61.3535ZM76.2287 70.9352L74.4013 69.1078L57.8747 85.6344L59.7021 87.4618L76.2287 70.9352Z" fill="white"/>
</g>
<g filter="url(#filter5_dd_1874_14722)">
<path d="M23.1444 88.4266C19.389 88.4266 15.6359 88.41 11.8805 88.4384C11.2297 88.4432 10.9744 88.3177 11.002 87.5718C11.0733 85.5639 11.0549 83.5536 11.071 81.5433C14.0376 81.548 17.0019 81.5314 19.9685 81.5764C20.6401 81.5859 20.9988 81.342 21.353 80.7784C26.6032 72.4483 38.4949 72.4105 43.7567 80.7098C44.1545 81.3373 44.5615 81.5764 45.2929 81.574C53.5166 81.5456 61.7426 81.5575 69.9687 81.5551C70.5781 81.5551 71.1898 81.5267 71.7992 81.5101C72.8985 81.5243 73.9977 81.5054 75.0947 81.5622C75.6834 81.593 76.0238 81.3917 76.348 80.8708C81.1636 73.0971 91.8273 72.2968 97.7352 79.2464C98.7264 81.6096 100.64 81.8392 102.776 81.5551C103.018 81.5219 103.264 81.5267 103.505 81.5148C104.004 81.5859 104.503 81.5953 105 81.5077V88.5C102.755 88.3224 100.509 88.4716 98.2642 88.4242C97.8686 88.4148 97.4754 88.4077 97.0798 88.4005C96.7786 87.9057 96.9878 87.3516 96.9005 86.8307C96.045 81.7445 91.1972 78.027 86.2551 78.8202C81.9455 79.5116 78.22 83.5204 78.2108 88.4479C73.294 88.4408 68.375 88.4266 63.4582 88.4242C56.3107 88.4195 49.1632 88.4195 42.0158 88.4195C41.8525 88.1709 41.8571 87.8891 41.8548 87.6026C41.8318 85.0879 40.7095 83.0208 39.017 81.3917C36.8392 79.2985 34.2152 78.2875 31.1405 78.8463C28.3372 79.3577 26.2329 80.8613 24.6507 83.2671C23.6182 84.8393 23.3652 86.6199 23.1444 88.4242V88.4266Z" fill="#707070"/>
</g>
<defs>
<filter id="filter0_i_1874_14722" x="0" y="0" width="117" height="117" filterUnits="userSpaceOnUse" color-interpolation-filters="sRGB">
<feFlood flood-opacity="0" result="BackgroundImageFix"/>
<feBlend mode="normal" in="SourceGraphic" in2="BackgroundImageFix" result="shape"/>
<feColorMatrix in="SourceAlpha" type="matrix" values="0 0 0 0 0 0 0 0 0 0 0 0 0 0 0 0 0 0 127 0" result="hardAlpha"/>
<feOffset dx="2" dy="2"/>
<feGaussianBlur stdDeviation="3"/>
<feComposite in2="hardAlpha" operator="arithmetic" k2="-1" k3="1"/>
<feColorMatrix type="matrix" values="0 0 0 0 0 0 0 0 0 0 0 0 0 0 0 0 0 0 0.05 0"/>
<feBlend mode="normal" in2="shape" result="effect1_innerShadow_1874_14722"/>
</filter>
<filter id="filter1_d_1874_14722" x="9" y="25.5" width="65" height="58" filterUnits="userSpaceOnUse" color-interpolation-filters="sRGB">
<feFlood flood-opacity="0" result="BackgroundImageFix"/>
<feColorMatrix in="SourceAlpha" type="matrix" values="0 0 0 0 0 0 0 0 0 0 0 0 0 0 0 0 0 0 127 0" result="hardAlpha"/>
<feOffset dy="-1"/>
<feGaussianBlur stdDeviation="1"/>
<feComposite in2="hardAlpha" operator="out"/>
<feColorMatrix type="matrix" values="0 0 0 0 0 0 0 0 0 0 0 0 0 0 0 0 0 0 0.25 0"/>
<feBlend mode="normal" in2="BackgroundImageFix" result="effect1_dropShadow_1874_14722"/>
<feBlend mode="normal" in="SourceGraphic" in2="effect1_dropShadow_1874_14722" result="shape"/>
</filter>
<filter id="filter2_d_1874_14722" x="75" y="77.5" width="25" height="24" filterUnits="userSpaceOnUse" color-interpolation-filters="sRGB">
<feFlood flood-opacity="0" result="BackgroundImageFix"/>
<feColorMatrix in="SourceAlpha" type="matrix" values="0 0 0 0 0 0 0 0 0 0 0 0 0 0 0 0 0 0 127 0" result="hardAlpha"/>
<feOffset dy="2"/>
<feGaussianBlur stdDeviation="1.5"/>
<feComposite in2="hardAlpha" operator="out"/>
<feColorMatrix type="matrix" values="0 0 0 0 0 0 0 0 0 0 0 0 0 0 0 0 0 0 0.25 0"/>
<feBlend mode="normal" in2="BackgroundImageFix" result="effect1_dropShadow_1874_14722"/>
<feBlend mode="normal" in="SourceGraphic" in2="effect1_dropShadow_1874_14722" result="shape"/>
</filter>
<filter id="filter3_d_1874_14722" x="20" y="77.5" width="25" height="24" filterUnits="userSpaceOnUse" color-interpolation-filters="sRGB">
<feFlood flood-opacity="0" result="BackgroundImageFix"/>
<feColorMatrix in="SourceAlpha" type="matrix" values="0 0 0 0 0 0 0 0 0 0 0 0 0 0 0 0 0 0 127 0" result="hardAlpha"/>
<feOffset dy="2"/>
<feGaussianBlur stdDeviation="1.5"/>
<feComposite in2="hardAlpha" operator="out"/>
<feColorMatrix type="matrix" values="0 0 0 0 0 0 0 0 0 0 0 0 0 0 0 0 0 0 0.25 0"/>
<feBlend mode="normal" in2="BackgroundImageFix" result="effect1_dropShadow_1874_14722"/>
<feBlend mode="normal" in="SourceGraphic" in2="effect1_dropShadow_1874_14722" result="shape"/>
</filter>
<filter id="filter4_d_1874_14722" x="69" y="45.5" width="37" height="41" filterUnits="userSpaceOnUse" color-interpolation-filters="sRGB">
<feFlood flood-opacity="0" result="BackgroundImageFix"/>
<feColorMatrix in="SourceAlpha" type="matrix" values="0 0 0 0 0 0 0 0 0 0 0 0 0 0 0 0 0 0 127 0" result="hardAlpha"/>
<feOffset dy="1"/>
<feGaussianBlur stdDeviation="1.5"/>
<feComposite in2="hardAlpha" operator="out"/>
<feColorMatrix type="matrix" values="0 0 0 0 0 0 0 0 0 0 0 0 0 0 0 0 0 0 0.25 0"/>
<feBlend mode="normal" in2="BackgroundImageFix" result="effect1_dropShadow_1874_14722"/>
<feBlend mode="normal" in="SourceGraphic" in2="effect1_dropShadow_1874_14722" result="shape"/>
</filter>
<filter id="filter5_dd_1874_14722" x="8" y="70.5" width="100" height="23" filterUnits="userSpaceOnUse" color-interpolation-filters="sRGB">
<feFlood flood-opacity="0" result="BackgroundImageFix"/>
<feColorMatrix in="SourceAlpha" type="matrix" values="0 0 0 0 0 0 0 0 0 0 0 0 0 0 0 0 0 0 127 0" result="hardAlpha"/>
<feOffset dy="2"/>
<feGaussianBlur stdDeviation="1.5"/>
<feComposite in2="hardAlpha" operator="out"/>
<feColorMatrix type="matrix" values="0 0 0 0 0 0 0 0 0 0 0 0 0 0 0 0 0 0 0.25 0"/>
<feBlend mode="normal" in2="BackgroundImageFix" result="effect1_dropShadow_1874_14722"/>
<feColorMatrix in="SourceAlpha" type="matrix" values="0 0 0 0 0 0 0 0 0 0 0 0 0 0 0 0 0 0 127 0" result="hardAlpha"/>
<feOffset dy="-2"/>
<feGaussianBlur stdDeviation="1"/>
<feComposite in2="hardAlpha" operator="out"/>
<feColorMatrix type="matrix" values="0 0 0 0 0 0 0 0 0 0 0 0 0 0 0 0 0 0 0.1 0"/>
<feBlend mode="normal" in2="effect1_dropShadow_1874_14722" result="effect2_dropShadow_1874_14722"/>
<feBlend mode="normal" in="SourceGraphic" in2="effect2_dropShadow_1874_14722" result="shape"/>
</filter>
</defs>
</svg>

<svg width="115" height="115" fill="none" xmlns="http://www.w3.org/2000/svg"><g filter="url(#filter0_i_1874_14722)"><rect width="115" height="115" rx="15" fill="#F8F4F4"/></g><g filter="url(#filter1_d_1874_14722)"><path d="M15.316 28.5h52.368c2.382 0 4.316 1.948 4.316 4.348V82.5H11V32.848c0-2.4 1.934-4.348 4.316-4.348z" fill="#C1141E"/></g><g filter="url(#filter2_d_1874_14722)"><path d="M78 87.586c.012-4.6 3.763-8.344 8.1-8.987 4.977-.738 9.858 2.73 10.72 7.477.087.487-.123 1.006.18 1.466-.213 1.538-.468 3.057-1.35 4.42-1.887 2.922-4.587 4.542-8.195 4.538-3.608-.007-6.315-1.624-8.174-4.564-.848-1.342-1.188-2.81-1.281-4.35zm9.49-3.636c-2.08 0-3.752 1.59-3.752 3.568 0 1.962 1.714 3.596 3.76 3.585 1.978-.011 3.706-1.656 3.731-3.552.026-1.948-1.692-3.603-3.74-3.6z" fill="#fff"/></g><g filter="url(#filter3_d_1874_14722)"><path d="M23 87.575c.222-1.685.475-3.344 1.517-4.81 1.59-2.244 3.709-3.648 6.534-4.123 3.095-.521 5.737.422 7.93 2.374 1.704 1.517 2.834 3.445 2.857 5.792.002.268 0 .53.162.762-.171 2.253-.947 4.251-2.521 5.987-4.08 4.494-12.057 3.715-15.106-1.475-.834-1.418-1.23-2.915-1.373-4.505v-.002zm9.556-3.613c-2.084-.022-3.786 1.55-3.807 3.52-.02 1.959 1.67 3.606 3.726 3.633 2.016.026 3.764-1.639 3.776-3.598.012-1.901-1.683-3.533-3.695-3.555z" fill="#fff"/></g><g filter="url(#filter4_d_1874_14722)"><path d="M72.021 82.366c-.007-7.46-.016-14.92-.02-22.38-.002-4.155 0-8.309 0-12.463 6.354-.005 12.71-.053 19.064.006 3.993.037 7.147 2.571 8.344 6.609 1.195 4.03 2.309 8.087 3.452 12.134.074.258.139.532.139.797 0 5.1-.007 10.199-.011 15.3-.238.01-.479.008-.712.038-2.087.274-3.955.055-4.923-2.228a12.936 12.936 0 00-20.888 1.568c-.317.505-.65.697-1.224.667-1.071-.055-2.145-.037-3.219-.05l-.002.002zm26.341-16.062c-1.076-3.798-2.08-7.619-3.252-11.385-.604-1.94-2.091-3.002-4.128-3.013-4.827-.03-9.656-.003-14.485 0-.49.045-.325.438-.325.699-.011 4.403.002 8.804-.018 13.208-.002.646.222.83.835.83 6.895-.017 13.788-.01 20.683-.02.248 0 .64.186.69-.317v-.002z" fill="#fff"/></g><mask id="a" style="mask-type:alpha" maskUnits="userSpaceOnUse" x="10" y="28" width="62" height="55"><path d="M15.31 28.507l52.373-.005c2.383 0 4.317 1.948 4.316 4.348l-.005 49.657-61.006.006.005-49.657c0-2.4 1.935-4.348 4.317-4.349z" fill="#C1141E"/></mask><g mask="url(#a)"><path fill-rule="evenodd" clip-rule="evenodd" d="M66.784 25.557l-1.828-1.827-57.23 57.23 1.828 1.827 57.23-57.23zm-12.814.022l1.828 1.827L9.99 73.214l-1.828-1.827L53.97 25.579zm-7.619 2.137l-1.827-1.827L7.378 63.034l1.828 1.828L46.35 27.716zm-11.274-1.518l1.828 1.828L9.416 55.513 7.59 53.686l27.487-27.488zm-6.028.544l-1.828-1.827L5.41 46.727l1.828 1.827L29.05 26.742zm-7.953-1.183l-1.828-1.827L4.833 38.167l1.827 1.828 14.436-14.436zm48.43 2.74l1.827 1.827-57.23 57.23-1.828-1.828 57.23-57.23zm6.395 6.395l-1.828-1.827-42.557 42.557 1.828 1.827L75.92 34.694zm3.18 3.182l1.85 1.849-39.937 39.938-1.85-1.85 39.938-39.937zm-2.75 14.663l-1.828-1.828L42.465 82.77l1.828 1.827L76.35 52.54zm-3.333 8.814l1.828 1.828L53.74 84.287l-1.828-1.828 21.106-21.106zm3.21 9.582l-1.827-1.827-16.526 16.526 1.827 1.828L76.23 70.935z" fill="#fff"/></g><g filter="url(#filter5_dd_1874_14722)"><path d="M23.144 88.427c-3.755 0-7.508-.017-11.263.011-.651.005-.907-.12-.879-.866.071-2.008.053-4.018.069-6.029 2.967.005 5.93-.012 8.897.033.672.01 1.03-.234 1.385-.798 5.25-8.33 17.142-8.368 22.404-.068.398.627.805.866 1.536.864 8.224-.028 16.45-.016 24.676-.019.61 0 1.22-.028 1.83-.045 1.1.014 2.199-.005 3.296.052.588.031.929-.17 1.253-.691 4.816-7.774 15.48-8.574 21.387-1.625.991 2.364 2.905 2.593 5.041 2.31.242-.034.488-.03.729-.041.499.07.998.08 1.495-.007V88.5c-2.245-.178-4.491-.028-6.736-.076-.395-.01-.789-.016-1.184-.024-.301-.494-.092-1.048-.18-1.57-.855-5.085-5.703-8.803-10.645-8.01-4.31.692-8.035 4.7-8.044 9.628-4.917-.007-9.836-.021-14.753-.024-7.147-.005-14.295-.005-21.442-.005-.163-.248-.159-.53-.161-.816-.023-2.515-1.145-4.582-2.838-6.211-2.178-2.093-4.802-3.105-7.877-2.546-2.803.512-4.907 2.015-6.49 4.421-1.032 1.572-1.285 3.353-1.506 5.157v.003z" fill="#707070"/></g><defs><filter id="filter0_i_1874_14722" x="0" y="0" width="117" height="117" filterUnits="userSpaceOnUse" color-interpolation-filters="sRGB"><feFlood flood-opacity="0" result="BackgroundImageFix"/><feBlend in="SourceGraphic" in2="BackgroundImageFix" result="shape"/><feColorMatrix in="SourceAlpha" values="0 0 0 0 0 0 0 0 0 0 0 0 0 0 0 0 0 0 127 0" result="hardAlpha"/><feOffset dx="2" dy="2"/><feGaussianBlur stdDeviation="3"/><feComposite in2="hardAlpha" operator="arithmetic" k2="-1" k3="1"/><feColorMatrix values="0 0 0 0 0 0 0 0 0 0 0 0 0 0 0 0 0 0 0.05 0"/><feBlend in2="shape" result="effect1_innerShadow_1874_14722"/></filter><filter id="filter1_d_1874_14722" x="9" y="25.5" width="65" height="58" filterUnits="userSpaceOnUse" color-interpolation-filters="sRGB"><feFlood flood-opacity="0" result="BackgroundImageFix"/><feColorMatrix in="SourceAlpha" values="0 0 0 0 0 0 0 0 0 0 0 0 0 0 0 0 0 0 127 0" result="hardAlpha"/><feOffset dy="-1"/><feGaussianBlur stdDeviation="1"/><feComposite in2="hardAlpha" operator="out"/><feColorMatrix values="0 0 0 0 0 0 0 0 0 0 0 0 0 0 0 0 0 0 0.25 0"/><feBlend in2="BackgroundImageFix" result="effect1_dropShadow_1874_14722"/><feBlend in="SourceGraphic" in2="effect1_dropShadow_1874_14722" result="shape"/></filter><filter id="filter2_d_1874_14722" x="75" y="77.5" width="25" height="24" filterUnits="userSpaceOnUse" color-interpolation-filters="sRGB"><feFlood flood-opacity="0" result="BackgroundImageFix"/><feColorMatrix in="SourceAlpha" values="0 0 0 0 0 0 0 0 0 0 0 0 0 0 0 0 0 0 127 0" result="hardAlpha"/><feOffset dy="2"/><feGaussianBlur stdDeviation="1.5"/><feComposite in2="hardAlpha" operator="out"/><feColorMatrix values="0 0 0 0 0 0 0 0 0 0 0 0 0 0 0 0 0 0 0.25 0"/><feBlend in2="BackgroundImageFix" result="effect1_dropShadow_1874_14722"/><feBlend in="SourceGraphic" in2="effect1_dropShadow_1874_14722" result="shape"/></filter><filter id="filter3_d_1874_14722" x="20" y="77.5" width="25" height="24" filterUnits="userSpaceOnUse" color-interpolation-filters="sRGB"><feFlood flood-opacity="0" result="BackgroundImageFix"/><feColorMatrix in="SourceAlpha" values="0 0 0 0 0 0 0 0 0 0 0 0 0 0 0 0 0 0 127 0" result="hardAlpha"/><feOffset dy="2"/><feGaussianBlur stdDeviation="1.5"/><feComposite in2="hardAlpha" operator="out"/><feColorMatrix values="0 0 0 0 0 0 0 0 0 0 0 0 0 0 0 0 0 0 0.25 0"/><feBlend in2="BackgroundImageFix" result="effect1_dropShadow_1874_14722"/><feBlend in="SourceGraphic" in2="effect1_dropShadow_1874_14722" result="shape"/></filter><filter id="filter4_d_1874_14722" x="69" y="45.5" width="37" height="41" filterUnits="userSpaceOnUse" color-interpolation-filters="sRGB"><feFlood flood-opacity="0" result="BackgroundImageFix"/><feColorMatrix in="SourceAlpha" values="0 0 0 0 0 0 0 0 0 0 0 0 0 0 0 0 0 0 127 0" result="hardAlpha"/><feOffset dy="1"/><feGaussianBlur stdDeviation="1.5"/><feComposite in2="hardAlpha" operator="out"/><feColorMatrix values="0 0 0 0 0 0 0 0 0 0 0 0 0 0 0 0 0 0 0.25 0"/><feBlend in2="BackgroundImageFix" result="effect1_dropShadow_1874_14722"/><feBlend in="SourceGraphic" in2="effect1_dropShadow_1874_14722" result="shape"/></filter><filter id="filter5_dd_1874_14722" x="8" y="70.5" width="100" height="23" filterUnits="userSpaceOnUse" color-interpolation-filters="sRGB"><feFlood flood-opacity="0" result="BackgroundImageFix"/><feColorMatrix in="SourceAlpha" values="0 0 0 0 0 0 0 0 0 0 0 0 0 0 0 0 0 0 127 0" result="hardAlpha"/><feOffset dy="2"/><feGaussianBlur stdDeviation="1.5"/><feComposite in2="hardAlpha" operator="out"/><feColorMatrix values="0 0 0 0 0 0 0 0 0 0 0 0 0 0 0 0 0 0 0.25 0"/><feBlend in2="BackgroundImageFix" result="effect1_dropShadow_1874_14722"/><feColorMatrix in="SourceAlpha" values="0 0 0 0 0 0 0 0 0 0 0 0 0 0 0 0 0 0 127 0" result="hardAlpha"/><feOffset dy="-2"/><feGaussianBlur stdDeviation="1"/><feComposite in2="hardAlpha" operator="out"/><feColorMatrix values="0 0 0 0 0 0 0 0 0 0 0 0 0 0 0 0 0 0 0.1 0"/><feBlend in2="effect1_dropShadow_1874_14722" result="effect2_dropShadow_1874_14722"/><feBlend in="SourceGraphic" in2="effect2_dropShadow_1874_14722" result="shape"/></filter></defs></svg>
